X:1
T:King Wilkie's Run
Z: bil  irtrad-l 2001-10-24
M:4/4
L:1/8
Q:160
K:BMIN
% TUNEdb Number 8
[| BffB f2ef | gfed cBcd | e2ce dcBA | BffB f2ef | gfed cBcd |[M:3/4] e2ce dc ||
|| B2FBcd | B2GBcd | c2EAce | dcBABd | B2FBcd | B2GBcd | c2EAce | dcBAB2 |]
